!!!COM:  Karg-Elert, Sigfrid
!!!OPR:  30 Caprices, op. 107
!!!OTL:  Caprice No. 8
!!!ONB:  Royal Conservatory of Music Grade 10
!!!YEC:  Copyright 2001, Joy Ollen
!!!YEM:  Rights to all derivative electronic formats reserved.
!! [Con molto brio (Sehr lebhaft)]
**kern	**dynam
*MM210	*
*clefG2	*
*k[b-]	*
*M6/4	*
=-	=-
(8f	f
8a	<
8cc	(
8ee	(
8ff	(
8aa	(
8ccc	Xff
8eee	.
8fffT	.
8ddd	.
8ccc	.
8aa	.
=2	=2
8ff	.
8dd	.
8cc	>
8a	)
8fT	)
8e	)
4d)	)
.	Xf
4r	.
4ddT	p
=3	=3
(8cc	.
8a	.
8cc	.
8aa	.
4ff~)	.
(8cc	.
8a	.
8cc	.
8aa	.
4ee~)	.
=4	=4
(8cc	.
8a	.
8cc	.
8aa	.
4dd#~)	.
(8ee	.
8bn	<
8g#	(
8e	(
4eee)	Xmf
=5	=5
(8gn	f
8b-	<
8d	(
8ff#	(
8gg	(
8bb-	(
8ddd	Xff
8fff#	.
8gggT	.
8eee-	.
8ddd	.
8bb-	.
=6	=6
8gg	.
8ee-	.
8dd	>
8b-	)
8gT	)
8f	)
4e-)	)
.	Xf
4r	.
4dT	.
=7	=7
(8c#	.
8e	<
8g	(
8a	(
8ccn	(
8b-	(
8a	(
8g#	(
8a	(
8b-	(
8bn	(
8cc	(
=8	=8
8cc#	(
8dd	(
8ff	(
8aa	(
8ccc	(
8bb-	(
4fff)	Xff
4r	.
4b-T	.
=9	=9
(8g#	p
8ee	.
8bn	.
8ff	.
8a	.
8cc	.
8cc#	.
8aa	.
8ee	.
8bb-	.
8dd	.
8ff	.
=10	=10
8bbn	.
8gg#	.
8ee	.
8ee-	.
8gg	.
8ccc	.
8aa	.
8ff#	.
8dd	.
8cc#	.
4ccn)	.
=11	=11
(8bn	.
8dd	.
8ffn	.
8aa	.
8aa-	.
8gg	.
8ggg	.
8fff#	.
8fffn	.
8ddd	.
8bbn	.
8gg	.
=12	=12
8ff#	.
8ffn	.
8dd	.
8bn	.
8g	.
8f#	.
4fn)	.
8r	.
(8ee	f
8gg	.
8ee	.
=13	=13
8dd	.
8gg	.
8ddd)	.
(8aa	.
8ccc	.
8aa	.
8gg	.
8ccc	.
8ggg)	.
(8ee-	p
8gg	.
8ee-	.
=14	=14
8dd	.
8ddd	.
8gg)	.
(8aa-	.
8ccc	.
8aa-	.
8gg	.
8ggg	.
8ccc)	.
(8eee	f
8ddd	.
8ccc	.
=15	=15
8bb-	.
8aa-	.
8gg-)	.
(8bb-	.
8aa-	.
8gg-	.
8een	.
8dd	.
8cc)	.
(8een	.
8dd	.
8cc	.
=16	=16
8b-	.
8a-	.
8g-)	.
(8b-	.
8a-	.
8g-	.
4en)	.
4r	.
4d	p
=17	=17
(8c	.
8e	.
8g#	<
8a	(
8cc#	(
8ff	(
8ff#	(
8dd	(
8b-	(
8bn	(
.	[
8ee-	Xmf
8gg	.
=18	=18
8gg#	<
8ee	(
8cc	(
8cc#	(
8ff	(
8aa	(
8bb-	f
8ff#	.
8dd)	.
(8b-	p
8f#	.
8d	.
=19	=19
8e-	.
8g	.
8bn	<
8cc	(
8ee	(
8gg#	(
8aa	(
8ff	(
8cc#	(
8dd	(
8ff#	(
8bb-	(
=20	=20
8bbn	(
8gg	(
8ee-	(
8een	(
8gg#	f
8ccc	.
8ccc#	.
8aa	.
8ff	.
8cc#	.
4aa)	.
=21	=21
(8b-	f
8dd	.
8ff	.
8gg	.
8aa	.
8bb-	.
8ddd	.
8fff	.
8ggg	.
8aaa	.
8ggg	.
8fff	.
=22	=22
(8ddd	>
8bb-	)
8aa	)
8gg	)
8ff	)
8dd	)
4b-)	Xmp
4r	.
4at	p
=23	=23
(8g#	.
8e	<
8g#	(
8ee	(
8bn	(
8dd	(
8cc#	(
8a	(
8cc#	(
8aa	(
8ee	(
8ggn	(
=24	=24
(8ff#	(
8dd	(
8ff#	(
8ddd	(
8aa	(
8ccc	(
8bbn	(
8gg	Xmf
8bbn	.
8ggg	.
8ddd	.
8fff)	.
=25	=25
(8eee	f
8ddd	.
8ccc	.
8fff	.
8bb-	.
8aa	.
8bbn	.
8aa	.
8gg	.
8ccc	.
8ff	>
8ee)	)
=26	=26
(8ee	)
8dd	)
8cc	)
8ff	)
8b-	)
8a	)
8bn	)
8a	)
8g	)
8cc	)
8f	)
8e)	)
=27	=27
(8d	p
8f	<
8a	(
8cc	(
8b-	(
8cc#	(
8dd	(
8ff	(
8aa	(
8bb-	(
8ccc#	(
8ddd	(
=28	=28
8bbb-	(
8ggg	(
8eee	(
8ccc	(
8bb-	(
8aa	[
4fff)	f
2r	.
==	==
*-	*-
